src/categories-icons-sprite/categories/svg-cat-hobby.svg

<svg width="37" height="37" viewBox="0 0 37 37" fill="none" xmlns="http://www.w3.org/2000/svg">
<path class="p-D3D3D8" d="M31.3711 4.08887L32.9034 5.62113L29.4073 9.11728L27.875 7.58502L31.3711 4.08887Z" fill="#A1D1FD"/>
<path class="p-E2E2E7" d="M5.62866 4.08887L9.04238 7.50231L7.51012 9.03457L4.09668 5.62085L5.62866 4.08887Z" fill="#B9DFFC"/>
<path class="p-E2E2E7" d="M8.56183 26.8984L10.0941 28.4307L1.53227 36.9925L0 35.4603L8.56183 26.8984Z" fill="#A1D1FD"/>
<path class="p-FF637B" d="M20.7967 33.6842C19.973 34.096 19.3014 34.5581 18.4995 34.9265C15.4871 33.5614 12.2366 31.6037 9.54919 29.3282C9.20254 29.0465 11.0448 28.743 10.7196 28.4395C10.2645 28.028 7.66407 27.5946 7.25221 27.161C6.6021 26.4677 5.97344 25.7524 5.43173 24.9939C5.17174 24.6473 7.10062 24.2789 6.86208 23.9322C6.64557 23.5636 4.26164 23.1952 4.06658 22.8268C2.93968 20.7463 2.24609 18.5142 2.24609 16.1521C2.24609 15.9138 2.26783 15.5886 2.33276 15.2202L16.0071 22.8268L16.9824 23.3685L17.5676 24.9939L18.3696 27.161L18.4995 27.5077L19.1713 29.3282L20.7967 33.6842Z" fill="#5FBEFF"/>
<path class="p-E63950" d="M20.7973 33.6843C19.9735 34.0962 19.302 34.5583 18.5 34.9267V27.5078L19.1718 29.3283L20.7973 33.6843Z" fill="#4D98CB"/>
<path class="p-E63950" d="M9.55189 29.3283H19.1816L18.3802 27.1611H7.25293C7.96966 27.9197 8.74088 28.6415 9.55189 29.3283Z" fill="#4D98CB"/>
<path class="p-E63950" d="M16.9746 23.3593L16.0171 22.8267H4.05957C4.46466 23.5699 4.91716 24.2954 5.43178 24.9938H17.579L16.9746 23.3593Z" fill="#4D98CB"/>
<path class="p-E63950" d="M34.561 14.1584C34.5001 13.8238 32.2581 13.5023 32.1698 13.1935C32.0487 12.7689 34.0693 12.3684 33.9002 11.9912C32.1079 7.99146 27.9004 6.57324 25.5865 6.57324C22.096 6.57324 19.8569 8.53402 18.4951 9.92825L19.9819 11.9912L21.5441 14.1584L23.106 16.3252L24.089 17.6889L25.1775 18.4923L32.3643 23.7974C33.4192 22.1412 34.1655 20.3639 34.5178 18.4923C34.5808 18.1592 32.465 17.8236 32.5029 17.4848C32.5455 17.1023 34.738 16.7162 34.7423 16.3252C34.7428 16.2795 34.7533 16.2357 34.7533 16.19C34.7533 15.4594 34.6762 14.7918 34.561 14.1584Z" fill="#65B3E7"/>
<path class="p-BE1E33" d="M33.9004 11.9912H19.9824L21.5443 14.1583H34.5613C34.4167 13.364 34.1926 12.6427 33.9004 11.9912Z" fill="#4D98CB"/>
<path class="p-BE1E33" d="M23.1055 16.3252L24.0884 17.6889L25.1769 18.4923H34.5173C34.6508 17.7832 34.7335 17.0623 34.7417 16.3252H23.1055Z" fill="#4D98CB"/>
<path class="p-FF637B" d="M3.33064 6.57338C1.5381 6.57338 0.0078125 5.04309 0.0078125 3.25056C0.0078125 1.45802 1.5381 0 3.33064 0C5.12317 0 6.5812 1.45802 6.5812 3.25056C6.5812 5.04309 5.12317 6.57338 3.33064 6.57338Z" fill="#65B3E7"/>
<path class="p-E63950" d="M33.6695 6.57338C31.877 6.57338 30.4189 5.04309 30.4189 3.25056C30.4189 1.45802 31.877 0 33.6695 0C35.462 0 36.9923 1.45802 36.9923 3.25056C36.9923 5.04309 35.462 6.57338 33.6695 6.57338Z" fill="#4D98CB"/>
<path class="p-D3D3D8" d="M35.3957 36.9929L26.8711 28.396L28.4031 26.8638L36.9999 35.4606L35.3957 36.9929Z" fill="#B9DFFC"/>
<path class="p-F89FAD" d="M32.3694 23.8019C31.979 24.4085 31.546 24.9937 31.0906 25.5572C31.0906 25.5572 31.0906 25.5789 31.0689 25.5789C30.8089 25.9041 28.3601 24.0619 28.0783 24.3653C27.8836 24.5821 29.8554 26.9658 29.6388 27.1826C29.1403 27.7026 28.6201 28.1794 28.0783 28.6779C27.7752 28.9379 25.3046 27.031 25.0011 27.291C24.7411 27.4858 26.67 29.8697 26.4097 30.0648C25.8245 30.5198 25.2396 30.9534 24.6327 31.365C24.3727 31.5383 21.9239 29.5662 21.6639 29.7398C21.3169 29.9564 23.1374 32.3617 22.769 32.5571C22.5957 32.6869 21.8372 33.1205 20.797 33.684L2.33301 15.22C2.37648 14.7867 2.54981 13.8766 2.96167 12.7497C3.09152 12.3813 5.41052 14.1583 5.6053 13.7897C5.75717 13.4648 3.76337 10.9942 3.95843 10.6693C4.32682 10.0841 4.78187 9.49888 5.32358 8.97891C5.58385 8.71864 8.05416 10.6258 8.37936 10.3875C8.63935 10.1925 6.77567 7.83027 7.07913 7.67869C7.72925 7.31002 8.46602 7.02829 9.31119 6.85525C9.96131 6.70338 12.8003 8.78385 13.5588 8.78385C13.8405 8.78385 11.9334 6.68164 12.1936 6.68164C12.2151 6.70338 12.2151 6.70338 12.2368 6.70338C15.7042 6.9851 16.7662 8.19866 18.4997 9.93248L32.3694 23.8019Z" fill="#B9DFFC"/>
<path class="p-FF637B" d="M32.3697 23.802C31.9793 24.4087 31.5463 24.9939 31.0909 25.5573C31.0909 25.5573 31.0909 25.5791 31.0692 25.5791C30.8092 25.9043 28.3603 24.062 28.0786 24.3655C27.8838 24.5823 29.8556 26.9659 29.6391 27.1827C29.1406 27.7027 28.6203 28.1795 28.0786 28.678C27.7754 28.938 25.3049 27.0311 25.0014 27.2911C24.7414 27.4859 26.6703 29.8698 26.41 30.0649C25.8248 30.52 25.2399 30.9536 24.633 31.3651C24.373 31.5385 21.9242 29.5664 21.6642 29.74C21.3172 29.9565 23.1377 32.3619 22.7693 32.5572C22.596 32.6871 21.8375 33.1207 20.7973 33.6841L18.5 31.3869V9.93262L32.3697 23.802Z" fill="#A1D1FD"/>
<path class="p-FF637B" d="M24.633 31.3652C24.026 31.777 23.3977 32.1889 22.7693 32.5573L2.96191 12.7499C3.20017 12.0563 3.52536 11.3627 3.95868 10.6694L18.5 25.2324L24.633 31.3652Z" fill="#A1D1FD"/>
<path class="p-FF637B" d="M28.079 28.6779C27.5373 29.1547 26.9738 29.6097 26.4104 30.0648L18.5003 22.1548L5.32422 8.97893C5.82274 8.48041 6.40793 8.0471 7.07977 7.67871L28.079 28.6779Z" fill="#A1D1FD"/>
<path class="p-FF637B" d="M31.091 25.5572C31.091 25.5572 31.091 25.5789 31.0692 25.5789C30.6359 26.1206 30.1374 26.6623 29.6392 27.1826L9.31152 6.85523C9.96164 6.70336 10.6335 6.6167 11.392 6.6167C11.6737 6.6167 11.9337 6.68163 12.194 6.68163C12.2154 6.70336 12.2154 6.70336 12.2372 6.70336L31.091 25.5572Z" fill="#A1D1FD"/>
<path class="p-F83E5B" d="M18.5 25.2324L24.633 31.3654C24.0264 31.777 23.398 32.1889 22.7693 32.5572L18.5003 28.2879V25.2324H18.5Z" fill="#58ADE5"/>
<path class="p-F83E5B" d="M18.5 19.0996L28.0786 28.6782C27.5369 29.155 26.9735 29.6101 26.41 30.0651L18.5 22.1551V19.0996Z" fill="#58ADE5"/>
<path class="p-F83E5B" d="M31.0909 25.5575C31.0909 25.5575 31.0909 25.5792 31.0692 25.5792C30.6359 26.1209 30.1374 26.6626 29.6391 27.1829L18.5 16.044V12.9668L31.0909 25.5575Z" fill="#58ADE5"/>
</svg>

<svg width="37" height="37" fill="none" xmlns="http://www.w3.org/2000/svg"><path class="p-D3D3D8" d="M31.371 4.089l1.532 1.532-3.496 3.496-1.532-1.532 3.496-3.496z" fill="#A1D1FD"/><path class="p-E2E2E7" d="M5.629 4.089l3.413 3.413L7.51 9.035 4.097 5.62l1.532-1.532z" fill="#B9DFFC"/><path class="p-E2E2E7" d="M8.562 26.898l1.532 1.533-8.562 8.561L0 35.46l8.562-8.562z" fill="#A1D1FD"/><path class="p-FF637B" d="M20.797 33.684c-.824.412-1.496.874-2.297 1.242-3.013-1.365-6.263-3.322-8.95-5.598-.347-.281 1.495-.585 1.17-.889-.456-.411-3.056-.844-3.468-1.278-.65-.693-1.279-1.409-1.82-2.167-.26-.347 1.669-.715 1.43-1.062-.216-.368-2.6-.737-2.795-1.105-1.127-2.08-1.82-4.313-1.82-6.675 0-.238.02-.563.086-.932l13.674 7.607.975.541.586 1.626.802 2.167.13.347.671 1.82 1.626 4.356z" fill="#5FBEFF"/><path class="p-E63950" d="M20.797 33.684c-.823.412-1.495.874-2.297 1.243v-7.42l.672 1.821 1.625 4.356z" fill="#4D98CB"/><path class="p-E63950" d="M9.552 29.328h9.63l-.802-2.167H7.253a28.48 28.48 0 002.299 2.167zM16.975 23.36l-.958-.533H4.06c.405.743.857 1.468 1.372 2.167h12.147l-.604-1.635z" fill="#4D98CB"/><path class="p-E63950" d="M34.561 14.158c-.06-.334-2.303-.656-2.391-.964-.121-.425 1.9-.826 1.73-1.203-1.792-4-6-5.418-8.313-5.418-3.491 0-5.73 1.961-7.092 3.355l1.487 2.063 1.562 2.167 1.562 2.167.983 1.364 1.088.803 7.187 5.305c1.055-1.656 1.802-3.433 2.154-5.305.063-.333-2.053-.668-2.015-1.007.042-.383 2.235-.769 2.24-1.16 0-.046.01-.09.01-.135 0-.73-.077-1.398-.192-2.032z" fill="#65B3E7"/><path class="p-BE1E33" d="M33.9 11.991H19.982l1.562 2.167h13.017a9.384 9.384 0 00-.66-2.167zM23.105 16.325l.983 1.364 1.089.803h9.34c.134-.709.216-1.43.225-2.167H23.106z" fill="#4D98CB"/><path class="p-FF637B" d="M3.33 6.573c-1.792 0-3.322-1.53-3.322-3.322C.008 1.458 1.538 0 3.33 0a3.254 3.254 0 013.25 3.25c0 1.793-1.458 3.323-3.25 3.323z" fill="#65B3E7"/><path class="p-E63950" d="M33.67 6.573c-1.793 0-3.251-1.53-3.251-3.322A3.254 3.254 0 0133.669 0c1.793 0 3.323 1.458 3.323 3.25 0 1.793-1.53 3.323-3.322 3.323z" fill="#4D98CB"/><path class="p-D3D3D8" d="M35.396 36.993l-8.525-8.597 1.532-1.532L37 35.46l-1.604 1.532z" fill="#B9DFFC"/><path class="p-F89FAD" d="M32.37 23.802c-.391.607-.824 1.192-1.28 1.755 0 0 0 .022-.021.022-.26.325-2.709-1.517-2.99-1.214-.195.217 1.776 2.6 1.56 2.818-.499.52-1.019.996-1.56 1.495-.304.26-2.774-1.647-3.078-1.387-.26.195 1.669 2.579 1.409 2.774a33.79 33.79 0 01-1.777 1.3c-.26.173-2.71-1.799-2.97-1.625-.346.216 1.474 2.622 1.106 2.817-.173.13-.932.563-1.972 1.127L2.333 15.22c.043-.433.217-1.343.629-2.47.13-.369 2.449 1.408 2.643 1.04.152-.325-1.842-2.796-1.647-3.12a8.98 8.98 0 011.366-1.691c.26-.26 2.73 1.647 3.055 1.409.26-.195-1.603-2.558-1.3-2.71a7.553 7.553 0 012.232-.823c.65-.152 3.49 1.929 4.248 1.929.282 0-1.626-2.102-1.365-2.102.021.021.021.021.043.021 3.467.282 4.53 1.496 6.263 3.23l13.87 13.869z" fill="#B9DFFC"/><path class="p-FF637B" d="M32.37 23.802c-.39.607-.824 1.192-1.28 1.755 0 0 0 .022-.02.022-.26.325-2.71-1.517-2.991-1.213-.195.216 1.777 2.6 1.56 2.817-.498.52-1.019.997-1.56 1.495-.304.26-2.774-1.647-3.078-1.387-.26.195 1.67 2.579 1.409 2.774-.585.455-1.17.889-1.777 1.3-.26.174-2.709-1.799-2.969-1.625-.347.216 1.474 2.622 1.105 2.817-.173.13-.931.564-1.972 1.127L18.5 31.387V9.933l13.87 13.869z" fill="#A1D1FD"/><path class="p-FF637B" d="M24.633 31.365c-.607.412-1.235.824-1.864 1.192L2.962 12.75c.238-.694.563-1.387.997-2.08L18.5 25.231l6.133 6.133zM28.079 28.678c-.542.477-1.105.932-1.669 1.387l-7.91-7.91L5.324 8.979a7.694 7.694 0 011.756-1.3l20.999 20.999zM31.091 25.557s0 .022-.022.022a24.56 24.56 0 01-1.43 1.604L9.312 6.855a8.977 8.977 0 012.08-.238c.282 0 .542.065.802.065.021.021.021.021.043.021l18.854 18.854z" fill="#A1D1FD"/><path class="p-F83E5B" d="M18.5 25.232l6.133 6.133c-.607.412-1.235.824-1.864 1.192l-4.269-4.27v-3.055zM18.5 19.1l9.579 9.578c-.542.477-1.105.932-1.669 1.387l-7.91-7.91V19.1zM31.09 25.558s0 .021-.02.021a24.533 24.533 0 01-1.43 1.604L18.5 16.044v-3.077l12.59 12.59z" fill="#58ADE5"/></svg>
